X: 211
T: Miss Thomson of Leckybank's Strathspey
C: by J Pringle
B: John Pringle "Collection of Reels Strathspeys & Jigs", 1801 p.21#1
Z: 2011 John Chambers <jc:trillian.mit.edu>
R: strathspey
M: C
L: 1/8
K: A
V: 1
c/B/ |\
A<EE>F A>BcA | B<FF>A B>cdB | A<EE>F A>BcA | d<fc>A B2Ac/B/ |
A<EE>F A>BcA | B<FF>A B>cdf | A<Ec>e d>fca | e>cd>c B2A ||
f |\
e>cA>c d>efd | e>cAc BGEf | e>cAc d>efa | e<cd>c ~B2 Af |
e>cAc d>efd | e>cAc (d/c/B/A/) Gf | e<cd>e f>gaf | e<cac TB2A |]
V: 2 clef=bass middle=d
z |\
A2A2 c2A2 | d2d2 e2e2 | A2A2 c2A2 d2e2 E2A2 |
A2A2 A2c2 | d2^d2 e2e2 | A2a2 b2a2 | e2e2 E2A ||
z |\
a2a2 d2d2 | a2a2 e2e2 | a2a2 d2d2 | a2a2 e2A2 |
a2a2 d2d2 | a2a2 e2e2 | a2a2 d2d2 | e2e2 e2A |]

%%sep 2 1 500

